rospo-light/24x24/actions/align-vertical-node.svg

<svg height="24" viewBox="0 0 24 24" width="24" xmlns="http://www.w3.org/2000/svg"><path d="m .96289062-.00390625a.49999.49998 0 0 0 -.37695312.78125c1.3179 1.97640005 1.85615 5.51660315 2.21875 9.22070315h-1.80664062v1.9921871h-.49609376-.49999999v.5.5h.99609375v2.00586h2.25195312c.2106 2.3041.4725656 4.431781 1.0097656 6.050781.2912.8777.6619656 1.617044 1.1972656 2.152344.5352001.5354 1.2610719.837203 2.0761719.783203 2.0528-.1368 3.4511379-1.390159 4.3359379-3.06836.8848-1.6782 1.337193-3.796849 1.683593-5.90625 0-.001999-.0007-.011718 0-.011718h1.439454v-2.00586h3v2.00586h2.445312c.2282 1.5082.453494 3.022272.746094 4.388672.4132 1.9285.924422 3.571915 1.982422 4.478515a.49977.49975 0 0 0  .830078-.363281h.001953a.49977.49975 0 0 0 -.179688-.396484c-.6913-.5923-1.255496-2.066035-1.654297-3.927735-.2728-1.2735-.49129-2.720387-.71289-4.179687h1.541016v-2.00586h.5.5v-1h-.5-.5v-1.9921871h-2.458985c-.2451-.951-.543134-1.818875-.927734-2.546875-.3806-.7203-.855328-1.3174938-1.486328-1.6835938-.6309-.366-1.406841-.4670125-2.244141-.2578125-.6589.1647-1.156472.6451-1.513672 1.25-.3573.6048-.605247 1.353925-.810547 2.203125-.079.3271-.146844.6807563-.214843 1.0351563h-3.3398442v1.9921871h-4v-1.9921871h-2.1640626c-.3373999-3.759-.8624625-7.4486906-2.4140624-9.77539065a.49999.49998 0 0 0 -.45507818-.2265625zm15.59765638 6.40820315c.415931-.0350203.748837.0510656 1.054687.2285156.4078.2366.778116.6692562 1.103516 1.2851563.2972.5625.544672 1.2812781.763672 2.0800781h-1.490234v1.9921871h-3v-1.9921871h-.638672c.0538-.2714.106015-.5521813.166015-.8007813.1929-.798.425919-1.4668875.699219-1.9296875.2733-.4627.555884-.7021093.896484-.7871093.15935-.0398251.306669-.0644985.445313-.0761719zm-10.5664064 6.5859371h4v2.00586h2.5429684c-.338 2.0224-.785534 3.996072-1.552734 5.451172-.7863 1.4914-1.8240313 2.424109-3.5195312 2.537109-.5563.0371-.9357344-.123034-1.3027344-.490234-.367-.3671-.6943313-.970219-.9570313-1.761719-.478-1.4405-.7420718-3.488028-.9511719-5.736328h1.7402344z" fill="#31363b"/></svg>

<svg xmlns="http://www.w3.org/2000/svg" width="24" height="24" viewBox="0 0 24 24">
 <defs>
  <style id="current-color-scheme" type="text/css">
   .ColorScheme-Text { color:#31363b; } .ColorScheme-Highlight { color:#3daee9; }
  </style>
 </defs>
 <path style="fill:currentColor" class="ColorScheme-Text" d="M 0.96289062 -0.00390625 A 0.49999 0.49998 0 0 0 0.5859375 0.77734375 C 1.9038375 2.7537438 2.4420875 6.2939469 2.8046875 9.9980469 L 0.99804688 9.9980469 L 0.99804688 11.990234 L 0.50195312 11.990234 L 0.001953125 11.990234 L 0.001953125 12.490234 L 0.001953125 12.990234 L 0.99804688 12.990234 L 0.99804688 14.996094 L 3.25 14.996094 C 3.4606 17.300194 3.7225656 19.427875 4.2597656 21.046875 C 4.5509656 21.924575 4.9217312 22.663919 5.4570312 23.199219 C 5.9922313 23.734619 6.7181031 24.036422 7.5332031 23.982422 C 9.5860031 23.845622 10.984341 22.592263 11.869141 20.914062 C 12.753941 19.235862 13.206334 17.117213 13.552734 15.007812 C 13.552734 15.005813 13.552034 14.996094 13.552734 14.996094 L 14.992188 14.996094 L 14.992188 12.990234 L 17.992188 12.990234 L 17.992188 14.996094 L 20.4375 14.996094 C 20.6657 16.504294 20.890994 18.018366 21.183594 19.384766 C 21.596794 21.313266 22.108016 22.956681 23.166016 23.863281 A 0.49977 0.49975 0 0 0 23.996094 23.5 L 23.998047 23.5 A 0.49977 0.49975 0 0 0 23.818359 23.103516 C 23.127059 22.511216 22.562863 21.037481 22.164062 19.175781 C 21.891262 17.902281 21.672772 16.455394 21.451172 14.996094 L 22.992188 14.996094 L 22.992188 12.990234 L 23.492188 12.990234 L 23.992188 12.990234 L 23.992188 11.990234 L 23.492188 11.990234 L 22.992188 11.990234 L 22.992188 9.9980469 L 20.533203 9.9980469 C 20.288103 9.0470469 19.990069 8.1791719 19.605469 7.4511719 C 19.224869 6.7308719 18.750141 6.1336781 18.119141 5.7675781 C 17.488241 5.4015781 16.7123 5.3005656 15.875 5.5097656 C 15.2161 5.6744656 14.718528 6.1548656 14.361328 6.7597656 C 14.004028 7.3645656 13.756081 8.1136906 13.550781 8.9628906 C 13.471781 9.2899906 13.403937 9.6436469 13.335938 9.9980469 L 9.9960938 9.9980469 L 9.9960938 11.990234 L 5.9960938 11.990234 L 5.9960938 9.9980469 L 3.8320312 9.9980469 C 3.4946313 6.2390469 2.9695687 2.5493563 1.4179688 0.22265625 A 0.49999 0.49998 0 0 0 0.96289062 -0.00390625 z M 16.560547 6.4042969 C 16.976478 6.3692766 17.309384 6.4553625 17.615234 6.6328125 C 18.023034 6.8694125 18.39335 7.3020687 18.71875 7.9179688 C 19.01595 8.4804688 19.263422 9.1992469 19.482422 9.9980469 L 17.992188 9.9980469 L 17.992188 11.990234 L 14.992188 11.990234 L 14.992188 9.9980469 L 14.353516 9.9980469 C 14.407316 9.7266469 14.459531 9.4458656 14.519531 9.1972656 C 14.712431 8.3992656 14.94545 7.7303781 15.21875 7.2675781 C 15.49205 6.8048781 15.774634 6.5654688 16.115234 6.4804688 C 16.274584 6.4406437 16.421903 6.4159703 16.560547 6.4042969 z M 5.9941406 12.990234 L 9.9941406 12.990234 L 9.9941406 14.996094 L 12.537109 14.996094 C 12.199109 17.018494 11.751575 18.992166 10.984375 20.447266 C 10.198075 21.938666 9.1603437 22.871375 7.4648438 22.984375 C 6.9085438 23.021475 6.5291094 22.861341 6.1621094 22.494141 C 5.7951094 22.127041 5.4677781 21.523922 5.2050781 20.732422 C 4.7270781 19.291922 4.4630063 17.244394 4.2539062 14.996094 L 5.9941406 14.996094 L 5.9941406 12.990234 z"/>
</svg>
